storage/app/icons/phosphoricons/fill/cash-register-fill.svg

<svg xmlns="http://www.w3.org/2000/svg" fill="currentColor" viewBox="0 0 256 256"><path d="m239.76 158.06-22.48-89.94A16 16 0 0 0 201.75 56H136V40a16 16 0 0 0-16-16H80a16 16 0 0 0-16 16v16h-9.75a16 16 0 0 0-15.53 12.12l-22.48 89.94A8 8 0 0 0 16 160v32a16 16 0 0 0 16 16h192a16 16 0 0 0 16-16v-32a8 8 0 0 0-.24-1.94M168 88h16a8 8 0 0 1 0 16h-16a8 8 0 0 1 0-16m0 32h16a8 8 0 0 1 0 16h-16a8 8 0 0 1 0-16m-32-32a8 8 0 0 1 0 16h-16a8 8 0 0 1 0-16Zm8 40a8 8 0 0 1-8 8h-16a8 8 0 0 1 0-16h16a8 8 0 0 1 8 8M80 40h40v16H80Zm-8 48h16a8 8 0 0 1 0 16H72a8 8 0 0 1 0-16m0 32h16a8 8 0 0 1 0 16H72a8 8 0 0 1 0-16m152 72H32v-24h192Z"/></svg>

<svg xmlns="http://www.w3.org/2000/svg" viewBox="0 0 256 256" fill="currentColor"><path d="M239.76,158.06,217.28,68.12A16,16,0,0,0,201.75,56H136V40a16,16,0,0,0-16-16H80A16,16,0,0,0,64,40V56H54.25A16,16,0,0,0,38.72,68.12L16.24,158.06A7.93,7.93,0,0,0,16,160v32a16,16,0,0,0,16,16H224a16,16,0,0,0,16-16V160A7.93,7.93,0,0,0,239.76,158.06ZM168,88h16a8,8,0,0,1,0,16H168a8,8,0,0,1,0-16Zm0,32h16a8,8,0,0,1,0,16H168a8,8,0,0,1,0-16ZM136,88a8,8,0,0,1,0,16H120a8,8,0,0,1,0-16Zm8,40a8,8,0,0,1-8,8H120a8,8,0,0,1,0-16h16A8,8,0,0,1,144,128ZM80,40h40V56H80ZM72,88H88a8,8,0,0,1,0,16H72a8,8,0,0,1,0-16Zm0,32H88a8,8,0,0,1,0,16H72a8,8,0,0,1,0-16Zm152,72H32V168H224Z"/></svg>
